MonoIcons/scalable/status/weather-clear-symbolic.svg

<?xml version="1.0" encoding="UTF-8"?>
<svg height="16px" viewBox="0 0 16 16" width="16px" xmlns="http://www.w3.org/2000/svg">
    <path d="m 7.5 0 c -0.277344 0 -0.5 0.222656 -0.5 0.5 v 2 c 0 0.277344 0.222656 0.5 0.5 0.5 h 1 c 0.277344 0 0.5 -0.222656 0.5 -0.5 v -2 c 0 -0.277344 -0.222656 -0.5 -0.5 -0.5 z m -4.449219 1.84375 c -0.128906 0 -0.253906 0.046875 -0.351562 0.144531 l -0.710938 0.710938 c -0.195312 0.195312 -0.195312 0.507812 0 0.707031 l 1.417969 1.414062 c 0.195312 0.195313 0.507812 0.195313 0.707031 0 l 0.707031 -0.707031 c 0.195313 -0.199219 0.195313 -0.511719 0 -0.707031 l -1.414062 -1.417969 c -0.101562 -0.097656 -0.226562 -0.144531 -0.355469 -0.144531 z m 9.898438 0 c -0.128907 0 -0.253907 0.046875 -0.355469 0.144531 l -1.414062 1.417969 c -0.195313 0.195312 -0.195313 0.507812 0 0.707031 l 0.707031 0.707031 c 0.199219 0.195313 0.511719 0.195313 0.707031 0 l 1.417969 -1.414062 c 0.195312 -0.199219 0.195312 -0.511719 0 -0.707031 l -0.710938 -0.710938 c -0.097656 -0.097656 -0.222656 -0.144531 -0.351562 -0.144531 z m -4.949219 2.164062 c -2.195312 0 -4 1.804688 -4 4 c 0 2.191407 1.804688 4 4 4 s 4 -1.808593 4 -4 c 0 -2.195312 -1.804688 -4 -4 -4 z m -7.5 2.992188 c -0.277344 0 -0.5 0.222656 -0.5 0.5 v 1 c 0 0.277344 0.222656 0.5 0.5 0.5 h 2 c 0.277344 0 0.5 -0.222656 0.5 -0.5 v -1 c 0 -0.277344 -0.222656 -0.5 -0.5 -0.5 z m 13 0 c -0.277344 0 -0.5 0.222656 -0.5 0.5 v 1 c 0 0.277344 0.222656 0.5 0.5 0.5 h 2 c 0.277344 0 0.5 -0.222656 0.5 -0.5 v -1 c 0 -0.277344 -0.222656 -0.5 -0.5 -0.5 z m -9.742188 4.035156 c -0.128906 0 -0.253906 0.046875 -0.351562 0.144532 l -1.417969 1.414062 c -0.195312 0.199219 -0.195312 0.511719 0 0.707031 l 0.710938 0.710938 c 0.195312 0.195312 0.507812 0.195312 0.707031 0 l 1.414062 -1.417969 c 0.195313 -0.195312 0.195313 -0.507812 0 -0.707031 l -0.707031 -0.707031 c -0.101562 -0.097657 -0.226562 -0.144532 -0.355469 -0.144532 z m 8.484376 0 c -0.128907 0 -0.253907 0.046875 -0.355469 0.144532 l -0.707031 0.707031 c -0.195313 0.199219 -0.195313 0.511719 0 0.707031 l 1.414062 1.417969 c 0.199219 0.195312 0.511719 0.195312 0.707031 0 l 0.710938 -0.710938 c 0.195312 -0.195312 0.195312 -0.507812 0 -0.707031 l -1.417969 -1.414062 c -0.097656 -0.097657 -0.222656 -0.144532 -0.351562 -0.144532 z m -4.742188 1.964844 c -0.277344 0 -0.5 0.222656 -0.5 0.5 v 2 c 0 0.277344 0.222656 0.5 0.5 0.5 h 1 c 0.277344 0 0.5 -0.222656 0.5 -0.5 v -2 c 0 -0.277344 -0.222656 -0.5 -0.5 -0.5 z m 0 0" fill="#2e3436"/>
</svg>

<svg width="16" height="16" viewBox="0 0 16 16" fill="none" xmlns="http://www.w3.org/2000/svg">
<g clip-path="url(#clip0_231_1206)">
<path d="M7.5 0C7.22266 0 7 0.222656 7 0.5V2.5C7 2.77734 7.22266 3 7.5 3H8.5C8.77735 3 9 2.77734 9 2.5V0.5C9 0.222656 8.77735 0 8.5 0H7.5ZM3.05078 1.84375C2.92188 1.84375 2.79688 1.89063 2.69922 1.98828L1.98828 2.69922C1.79297 2.89453 1.79297 3.20703 1.98828 3.40625L3.40625 4.82031C3.60156 5.01563 3.91406 5.01563 4.11328 4.82031L4.82031 4.11328C5.01563 3.91406 5.01563 3.60156 4.82031 3.40625L3.40625 1.98828C3.30469 1.89063 3.17969 1.84375 3.05078 1.84375ZM12.9492 1.84375C12.8203 1.84375 12.6953 1.89063 12.5938 1.98828L11.1797 3.40625C10.9844 3.60156 10.9844 3.91406 11.1797 4.11328L11.8867 4.82031C12.0859 5.01563 12.3984 5.01563 12.5938 4.82031L14.0117 3.40625C14.207 3.20703 14.207 2.89453 14.0117 2.69922L13.3008 1.98828C13.2031 1.89063 13.0781 1.84375 12.9492 1.84375V1.84375ZM8 4.00781C5.80469 4.00781 4 5.8125 4 8.00781C4 10.1992 5.80469 12.0078 8 12.0078C10.1953 12.0078 12 10.1992 12 8.00781C12 5.8125 10.1953 4.00781 8 4.00781V4.00781ZM0.5 7C0.222656 7 0 7.22266 0 7.5V8.5C0 8.77735 0.222656 9 0.5 9H2.5C2.77734 9 3 8.77735 3 8.5V7.5C3 7.22266 2.77734 7 2.5 7H0.5ZM13.5 7C13.2227 7 13 7.22266 13 7.5V8.5C13 8.77735 13.2227 9 13.5 9H15.5C15.7773 9 16 8.77735 16 8.5V7.5C16 7.22266 15.7773 7 15.5 7H13.5ZM3.75781 11.0352C3.62891 11.0352 3.50391 11.082 3.40625 11.1797L1.98828 12.5938C1.79297 12.793 1.79297 13.1055 1.98828 13.3008L2.69922 14.0117C2.89453 14.207 3.20703 14.207 3.40625 14.0117L4.82031 12.5938C5.01563 12.3984 5.01563 12.0859 4.82031 11.8867L4.11328 11.1797C4.01172 11.082 3.88672 11.0352 3.75781 11.0352V11.0352ZM12.2422 11.0352C12.1133 11.0352 11.9883 11.082 11.8867 11.1797L11.1797 11.8867C10.9844 12.0859 10.9844 12.3984 11.1797 12.5938L12.5938 14.0117C12.793 14.207 13.1055 14.207 13.3008 14.0117L14.0117 13.3008C14.207 13.1055 14.207 12.793 14.0117 12.5938L12.5938 11.1797C12.4961 11.082 12.3711 11.0352 12.2422 11.0352V11.0352ZM7.5 13C7.22266 13 7 13.2227 7 13.5V15.5C7 15.7773 7.22266 16 7.5 16H8.5C8.77735 16 9 15.7773 9 15.5V13.5C9 13.2227 8.77735 13 8.5 13H7.5Z" fill="#2E3436"/>
</g>
<defs>
<clipPath id="clip0_231_1206">
<rect width="16" height="16" fill="white"/>
</clipPath>
</defs>
</svg>
